X: 1845
T: Royal Princess Two Step (1968)
C:Graham Townsend, Quebec, Canada (1942-1998)
B: australian traditional tunes wiki
M:4/4
L:1/8
R: Two Step
Q: 1/4=100
K:D
V:1 
Ad|"D"f4f3g-|f2d2A2F2|A4A3(B|A2)F2GGF2|"A"E4c3(d|"E7"c2)B4cB|"A"A4A2B2|"D"A2D2F2A2|
"D"f4f3g-|f2d2A2F2|A4A3(B|A2)F2GGF2|"A"E4e3(d|c2)A2B2c2|"D"d4{e}d3d|{c}d6FE||
"D"D4D3(E|F2)D2FDFA|d4d3(e|f2)d2A2F2|"A"c4c3(d|"E7"c2)B4cB|"A7"A4A2B2|"D"A2D4FE|
"D"D4D3(E|F2)D2FDFA|d4d3(e|f2)d2A2F2|"A"e4e3(d|c2)A2B2c2|"D"d4{e}d3d|d6||
% abcbook-tune_id 6342d53a17a69b9330386f3b


% abcbook-boost 0
% abcbook-tablature 
% abcbook-transpose 
% abcbook-lastupdated 1665324387438
% abcbook-soundfonts 
% abcbook-repeats 1
% NFF Book 2010

